X:1
T:Title
%%score { ( 1 4 5 ) | ( 2 3 ) }
L:1/8
M:4/4
K:Bb
V:1 treble nm="Grand Piano"
V:4 treble 
V:5 treble 
V:2 bass 
V:3 bass 
V:1
 z4 z2[Q:1/4=100] [B,D][CE] | [DF]3 [DF] [EG][DF][B,D][DF] | [DB]2 [Ec]2 [Fd]2 [FB]2 | %3
 [GB]3 [^FA] [Ac][GB][=FA][EG] |[M:3/4] [DF]6 |[M:1/4] D2 |[M:4/4] E3 E FECD | E2 F2 G2 B2 | %8
 A3 G FEDC |[M:3/4] D6 |[M:1/4] [DF]2 |[M:4/4] [EG]2 .[Gd]2 [B,FB]2 c2 | d6 [DF]2 | %13
 [EG]2 [Fd]c B2 A2 | [DB]6 z2 | B4 z4 | B2 A2 z4 | c4 z4 | c2 B2 z4 | [DF][DF][_D=E][=DF] [DB]4 | %20
[M:9/8] GG^F G [=Ec]2- [Ec][Ec][EB] |[M:4/4] AAGF B2 [Gc][Ge] |[M:7/8] [Fd]2 [Ec]2 [DB]3 |] %23
V:2
 z4 z2 [B,,F,]2 | [B,,B,]3 [B,,B,] [B,,B,][B,,B,][B,,F,][B,,B,] | %2
 [B,,F,]2 [B,,F,]2 [B,,B,]2 [D,B,]2 | [E,B,]3 [E,B,] [E,B,][E,B,][E,B,][E,B,] |[M:3/4] [B,,B,]6 | %5
[M:1/4] [B,,F,B,]2 |[M:4/4] [F,C]3 [F,C] [F,D][F,C][F,A,][F,B,] | [F,C]2 [F,D]2 [F,A,E]2 [F,CE]2 | %8
 [F,CE]3 [F,A,E] [F,B,D][F,C][F,B,][F,A,] |[M:3/4] [B,,F,B,]6 |[M:1/4] [B,,B,]2 | %11
[M:4/4] [E,B,]2 z[K:treble] c D,2 [F,A,F]2 | [B,F]6[K:bass] [B,,B,]2 | %13
 [E,B,]2 [E,G,][E,G,E] [F,D]2 [F,E]2 | [B,,F,]6 z2 | [B,,F,]2 [B,,F,]2 z[K:treble] B[K:bass] z G | %16
 [C,F,][C,F,][F,E][F,C] [F,CE]4 | [F,A,E]2 [F,A,]2 [F,A,E]2 [F,E]2 | %18
 [B,,F,][B,,F,][B,,F,][B,,F,] [B,,F,]4 | [B,,B,][B,,B,][B,,B,][B,,B,] [B,,B,]4 | %20
[M:9/8] [E,B,E][E,B,E][E,B,E] [E,B,E] [C,C]2- [C,C][C,C][C,C] | %21
[M:4/4] [F,CE][F,CE][F,B,E][F,A,E] [G,B,D]2 [E,B,][E,B,] |[M:7/8] [F,B,]2 [F,A,] F, [B,,F,]3 |] %23
V:3
 x8 | x8 | x8 | x8 |[M:3/4] x6 |[M:1/4] x2 |[M:4/4] x8 | x8 | x8 |[M:3/4] x6 |[M:1/4] x2 | %11
[M:4/4] z2 [E,B,]2[K:treble] z4 | x6[K:bass] x2 | x8 | x8 | z4 [B,,F,]2[K:treble][K:bass] B,,2 | %16
 x8 | x8 | x8 | x8 |[M:9/8] x9 |[M:4/4] x8 |[M:7/8] x7 |] %23
V:4
 x8 | x8 | x8 | x8 |[M:3/4] x6 |[M:1/4] x2 |[M:4/4] x8 | x8 | x8 |[M:3/4] x6 |[M:1/4] x2 | %11
[M:4/4] x8 | x8 | x8 | x8 | D2 z A .[Dc]2 .[B,DF]2 | EE z E A4 | z2 z =B dcGA | DDDD [DB]4 | x8 | %20
[M:9/8] x9 |[M:4/4] x8 |[M:7/8] x7 |] %23
V:5
 x8 | x8 | x8 | x8 |[M:3/4] x6 |[M:1/4] x2 |[M:4/4] x8 | x8 | x8 |[M:3/4] x6 |[M:1/4] x2 | %11
[M:4/4] x8 | x8 | x8 | x8 | z2 D2 z4 | x8 | z2 E2 z4 | x8 | x8 |[M:9/8] x9 |[M:4/4] x8 | %22
[M:7/8] x7 |] %23

